src/components/content/Icon/functional/arrow-across.svg

<svg width="100" height="100" viewBox="0 0 100 100" fill="none" xmlns="http://www.w3.org/2000/svg">
<path d="M36.2898 50.014C36.2898 50.566 36.7378 51.014 37.2898 51.014H60.1558L49.0218 61.898C48.6278 62.284 48.6198 62.918 49.0058 63.312C49.2018 63.512 49.4618 63.612 49.7218 63.612C49.9818 63.612 50.2258 63.518 50.4198 63.328L63.3078 50.728C63.4028 50.6345 63.4782 50.523 63.5297 50.4001C63.5811 50.2772 63.6076 50.1453 63.6076 50.012C63.6076 49.8787 63.5811 49.7468 63.5297 49.6239C63.4782 49.5009 63.4028 49.3895 63.3078 49.296L50.4198 36.698C50.2301 36.5128 49.9746 36.4105 49.7095 36.4135C49.4444 36.4165 49.1913 36.5246 49.0058 36.714C48.8206 36.9037 48.7183 37.1592 48.7213 37.4243C48.7243 37.6894 48.8324 37.9425 49.0218 38.128L60.1558 49.012H37.2878C36.7358 49.012 36.2878 49.46 36.2878 50.012L36.2898 50.014Z" fill="#0B301A"/>
<path d="M67.3978 32.566C57.7758 22.944 42.1218 22.944 32.4998 32.566C28.5258 36.54 26.0098 41.8 25.4138 47.376C25.3997 47.5066 25.4114 47.6386 25.4484 47.7647C25.4854 47.8907 25.547 48.0081 25.6295 48.1103C25.712 48.2125 25.8138 48.2974 25.9292 48.3602C26.0446 48.4229 26.1712 48.4623 26.3018 48.476C26.8518 48.536 27.3438 48.138 27.4018 47.588C27.9498 42.464 30.2618 37.63 33.9138 33.98C42.7558 25.138 57.1418 25.138 65.9838 33.98C74.8258 42.822 74.8258 57.208 65.9838 66.05C57.1418 74.892 42.7558 74.892 33.9138 66.05C30.0798 62.216 27.7438 57.13 27.3358 51.73C27.2938 51.18 26.8138 50.764 26.2638 50.808C25.7138 50.85 25.2998 51.33 25.3418 51.88C25.7838 57.756 28.3258 63.292 32.4998 67.464C37.1598 72.124 43.3578 74.692 49.9498 74.692C56.5418 74.692 62.7378 72.126 67.3978 67.464C77.0198 57.842 77.0198 42.188 67.3978 32.566Z" fill="#0B301A"/>
</svg>

<svg xmlns="http://www.w3.org/2000/svg" width="100" height="100" fill="none" viewBox="0 0 100 100"><path fill="#0b301a" d="M36.29 50.014a1 1 0 0 0 1 1h22.866L49.022 61.898a1 1 0 0 0 1.398 1.43l12.888-12.6a1.005 1.005 0 0 0 0-1.432L50.42 36.698a1 1 0 0 0-1.398 1.43l11.134 10.884H37.288a1 1 0 0 0-1 1z"/><path fill="#0b301a" d="M67.398 32.566c-9.622-9.622-25.276-9.622-34.898 0a24.73 24.73 0 0 0-7.086 14.81 1 1 0 1 0 1.988.212 22.72 22.72 0 0 1 6.512-13.608c8.842-8.842 23.228-8.842 32.07 0s8.842 23.228 0 32.07-23.228 8.842-32.07 0a22.68 22.68 0 0 1-6.578-14.32 1 1 0 1 0-1.994.15A24.66 24.66 0 0 0 32.5 67.464a24.52 24.52 0 0 0 17.45 7.228c6.592 0 12.788-2.566 17.448-7.228 9.622-9.622 9.622-25.276 0-34.898"/></svg>
